outputs/icons/action/open_in_new_window_round.svg

<svg xmlns="http://www.w3.org/2000/svg" width="1200" height="1200" fill="none"><g clip-path="url(#a)"><path fill="#000" d="M900 950H300c-27.5 0-50-22.5-50-50V300c0-27.5 22.5-50 50-50h250c27.5 0 50-22.5 50-50s-22.5-50-50-50H250c-55.5 0-100 45-100 100v700c0 55 45 100 100 100h700c55 0 100-45 100-100V650c0-27.5-22.5-50-50-50s-50 22.5-50 50v250c0 27.5-22.5 50-50 50M700 200c0 27.5 22.5 50 50 50h129.5L423 706.5c-19.5 19.5-19.5 51 0 70.5s51 19.5 70.5 0L950 320.5V450c0 27.5 22.5 50 50 50s50-22.5 50-50V200c0-27.5-22.5-50-50-50H750c-27.5 0-50 22.5-50 50"/></g><defs><clipPath id="a"><path fill="#fff" d="M0 0h1200v1200H0z"/></clipPath></defs></svg>

<svg width="1200" height="1200" viewBox="0 0 1200 1200" fill="none" xmlns="http://www.w3.org/2000/svg"><g clip-path="url(#clip0_223_1908)"><path d="M900 950H300C272.5 950 250 927.5 250 900V300C250 272.5 272.5 250 300 250H550C577.5 250 600 227.5 600 200C600 172.5 577.5 150 550 150H250C194.5 150 150 195 150 250V950C150 1005 195 1050 250 1050H950C1005 1050 1050 1005 1050 950V650C1050 622.5 1027.5 600 1000 600C972.5 600 950 622.5 950 650V900C950 927.5 927.5 950 900 950ZM700 200C700 227.5 722.5 250 750 250H879.5L423 706.5C403.5 726 403.5 757.5 423 777C442.5 796.5 474 796.5 493.5 777L950 320.5V450C950 477.5 972.5 500 1000 500C1027.5 500 1050 477.5 1050 450V200C1050 172.5 1027.5 150 1000 150H750C722.5 150 700 172.5 700 200Z" fill="#1D1E23"/></g><defs><clipPath id="clip0_223_1908"><path width="24" fill="white" d="M0 0H1200V1200H0V0z"/></clipPath></defs></svg>
